!!!COM: Bach, Johann Sebastian
!!!CDT: 1685/3//-1750/7/28/
!!!OTL@@DE: O Gott, du frommer Gott
!!!OTL@EN:  O pious God
!!!AGN: 4-Part Chorale
!!!SCT: BH 315
!!!SCT: BWV 399
**harm	**root	**kern	**kern	**kern	**kern
!	!	!bass	!tenor	!alto	!soprno
*	*Iorgan	*Iorgan	*Iorgan	*Iorgan	*Iorgan
*	*	*clefF4	*clefF4	*clefG2	*clefG2
*M4/4	*M4/4	*M4/4	*M4/4	*M4/4	*M4/4
*met(c)	*met(c)	*met(c)	*met(c)	*met(c)	*met(c)
*MM56	*MM56	*MM56	*MM56	*MM56	*MM56
*k[b-e-a-]	*k[b-e-a-]	*k[b-e-a-]	*k[b-e-a-]	*k[b-e-a-]	*k[b-e-a-]
*>[A,A,B]	*>[A,A,B]	*>[A,A,B]	*>[A,A,B]	*>[A,A,B]	*>[A,A,B]
*>A	*>A	*>A	*>A	*>A	*>A
*E-:	*E-:	*E-:	*E-:	*E-:	*E-:
vi	4EE	[4C	8E-	4e-	4g
.	.	.	8F	.	.
=1	=1	=1	=1	=1	=1
iii7	4.BB	8C]	4.G	4d	4g
.	.	4BB-	.	.	.
.	.	.	.	8e-	4cc
vii7Dc	8FF#	8AA-	8F	8d	.
Ib	8GG	8GG	8G	4e-	4b-
IV	8CC	8AA-	8c	.	.
V7	4DD	4BB-	4B-	4d	16a-
.	.	.	.	.	16g
.	.	.	.	.	8a-
=2	=2	=2	=2	=2	=2
I;	2.GG;	2.EE-;	2.B-;	2.e-;	2.g;
I	8GG	8EE-	8B-	4e-	8g
ii7	8AA	8FF	8A-	.	8a-
=3	=3	=3	=3	=3	=3
Ib	4GG	4GG	8G	8e-	4b-
.	.	.	8F	8d	.
IV	4CC	[4AA-	4E-	8c	4e-
.	.	.	.	16d	.
.	.	.	.	16e-	.
V7d	4DD	8AA-]	4B-	4d	4f
.	.	8GG	.	.	.
I	4GG	8FF	4B-	[4e-	4g
.	.	8EE-	.	.	.
=4	=4	=4	=4	=4	=4
V7	2DD	2BB-	4.B-	8e-]	2f
.	.	.	.	8c	.
.	.	.	.	4d	.
.	.	.	8A-	.	.
I;	4GG;	4EE-;	4G;	4B-;	4e-;
=:|!	=:|!	=:|!	=:|!	=:|!	=:|!
*>B	*>B	*>B	*>B	*>B	*>B
V7d/V	4AA	[4E-	4A	4c	4f
=5	=5	=5	=5	=5	=5
Vb	4DD	8E-]	4B-	4B-	4f
.	.	8D	.	.	.
iiib	4BB	8C	4B-	4d	4g
.	.	8BB-	.	.	.
IVb	4CC	4C	8A-	4e-	8a-
.	.	.	8G	.	8cc
vi	8EE	4D	8F	4f	8b-
V7b	8DD	.	8B-	.	8a-
!!linebreak: 2
=6	=6	=6	=6	=6	=6
I;	2.GG;	2.E-;	2.B-;	2.e-;	2.g;
*B-:	*B-:	*B-:	*B-:	*B-:	*B-:
IV	4GG	4EE-	4B-	8e-	4g
.	.	.	.	8d	.
=7	=7	=7	=7	=7	=7
V7d	8AA	8E-	8A	8c	4f
Ib	8DD	8D	8F	16B-	.
.	.	.	.	16A	.
IV	8GG	8G	8E-	4B-	8b-
I	8DD	8F	8D	.	16cc
.	.	.	.	.	16dd
iib	8EE	8E-	8G	8e-	4cc
ii	8EE	8C	8e-	8g	.
Ic	8DD	4F	8d	8f	8b-
V	8AA	.	8c	8e-	8a
=8	=8	=8	=8	=8	=8
I;	2.DD;	2.BB-;	2.B-;	2.d;	2.b-;
*A-:	*A-:	*A-:	*A-:	*A-:	*A-:
V/V	4DD	8B-	4d	4f	4b-
.	.	8A-	.	.	.
=9	=9	=9	=9	=9	=9
Vb	4GG	8G	4e-	4e-	4b-
.	.	8F	.	.	.
V7d	4GG	8E-	4B-	4e-	4g
.	.	8D-	.	.	.
Ib	4CC	8C	4c	4e-	4a-
.	.	8BB-	.	.	.
V7b	4GG	8AA-	4d-	4e-	4b-
.	.	8GG	.	.	.
=10	=10	=10	=10	=10	=10
I;	2.CC;	2.AA-;	2.c;	2.e-;	2.cc;
*E-:	*E-:	*E-:	*E-:	*E-:	*E-:
V	4DD	4BB-	4B-	4d	4f
=11	=11	=11	=11	=11	=11
I	4GG	8EE-	4B-	4e-	8g
.	.	8FF	.	.	16a-
.	.	.	.	.	16b-
IV7	4CC	8GG	8B-	4e-	8a-
.	.	8AA-	8c	.	8g
Ic	4GG	4BB-	4B-	4e-	4g
V7	4DD	4BB-	4A-	4d	8f
.	.	.	.	.	8e-
=12	=12	=12	=12	=12	=12
I;	2.GG;	2.EE-;	2.G;	2.B-;	2.e-;
==|!	==|!	==|!	==|!	==|!	==|!
*-	*-	*-	*-	*-	*-
!!chor2scor: -l 2 -o %b.pmx
!!!YEC: Copyright 2003 by Craig Stuart Sapp
!!!license: GNU General Public License (http://www.gnu.org/copyleft/gpl.html)
!!!SMA: 371 Bach Chorales, edited by Ludwig Erk, C.F. Peters
!!!PDT: 1850, 1865
!!!ONB: Harmony and Root analysis done manually by Craig Sapp
